Costumes/trombone-b.svg

<svg version="1.1" width="285" height="74" viewBox="-1 -1 285 74" xmlns="http://www.w3.org/2000/svg" xmlns:xlink="http://www.w3.org/1999/xlink">
  <!-- Exported by Scratch - http://scratch.mit.edu/ -->
  <g id="ID0.15856806794181466">
    <path id="ID0.2259777677245438" fill="#FCD53E" d="M 456 204.300 L 168.800 204.300 L 168.800 173.600 L 208 173.600 C 229.700 177.900 246.700 185.400 257.300 197.500 C 265.800 173.400 266.500 150.200 257.300 128 C 248.100 141.700 218.400 156.300 208 159.700 C 199.200 162.500 146.800 167 130.500 167.700 C 128.400 167.800 126.900 167.800 126.200 167.800 L 126.200 167.800 C 125.900 167.800 125.700 167.800 125.700 167.700 L 81.700 167.700 C 81.400 167.700 81 167.700 80.700 167.800 C 65.600 169.200 58.800 184.200 62.200 196.500 C 65.900 210 80.700 212.400 80.700 212.400 L 191.900 212.400 L 191.900 221.700 L 183.600 221.700 C 182.800 220.100 181.400 219 179.900 219 C 178.300 219 177 220.100 176.200 221.700 L 166.800 221.700 C 165.600 220.600 163.900 219.900 162 219.900 C 160.700 219.900 158.800 219.300 157.700 219.700 C 157.300 219.200 156.800 218.800 156.200 218.500 C 154.900 217.800 153.100 218.500 152.800 220 C 152 223.300 151.900 226.600 152.600 230 C 153 231.700 155 232.500 156.400 231.400 C 156.600 231.200 156.900 231 157.100 230.800 C 158.300 231.300 160.800 231.100 162.100 231.100 C 164.100 231.100 165.900 230.300 167.100 229.100 L 176.800 229.100 C 177.600 230.300 178.800 231.100 180.100 231.100 C 181.400 231.100 182.600 230.300 183.400 229.100 L 456 229.100 C 456 229.100 465.300 228.400 467.500 220.700 C 469.500 213.500 465.300 204.800 456 204.300 Z M 89.400 204.300 L 80.700 204.300 C 64.100 202.600 67.800 176.300 81.700 173.600 L 89.400 173.600 L 89.400 204.300 Z M 115.100 204.300 L 97.100 204.300 L 97.100 173.600 L 115.100 173.600 L 115.100 204.300 Z M 160.900 204.300 L 121.900 204.300 L 121.900 173.600 L 152.300 173.600 C 152.300 173.600 152.500 173.600 152.800 173.600 L 161 173.600 L 160.900 204.300 L 160.900 204.300 Z M 210.900 221.700 L 197.700 221.700 L 197.700 212.400 L 210.900 212.400 L 210.900 221.700 Z M 456 221.700 L 216.700 221.700 L 216.700 212.400 L 456 212.400 C 461.300 212.300 463.900 219.700 456 221.700 Z " transform="matrix(0.6983373165130615, 0, 0, 0.6983373165130615, -42.2, -88.85)"/>
    <path id="ID0.8608506550081074" fill="none" stroke="#FCD53E" d="M 277.700 162.500 L 319.700 162.500 " transform="matrix(0.6983373165130615, 0, 0, 0.6983373165130615, -42.2, -88.85)"/>
    <path id="ID0.9644269701093435" fill="none" stroke="#FCD53E" d="M 277.700 173.700 L 314.100 194.700 " transform="matrix(0.6983373165130615, 0, 0, 0.6983373165130615, -42.2, -88.85)"/>
    <path id="ID0.4391731065697968" fill="none" stroke="#FCD53E" d="M 277.700 151.300 L 314.100 130.300 " transform="matrix(0.6983373165130615, 0, 0, 0.6983373165130615, -42.2, -88.85)"/>
  </g>
</svg>

<?xml version="1.0" encoding="UTF-8" standalone="no"?>
<svg
   version="1.1"
   width="283.9772"
   height="72.56086"
   viewBox="-1 -1 283.9772 72.56086"
   id="svg7"
   sodipodi:docname="trombone-b.svg"
   xmlns:inkscape="http://www.inkscape.org/namespaces/inkscape"
   xmlns:sodipodi="http://sodipodi.sourceforge.net/DTD/sodipodi-0.dtd"
   xmlns="http://www.w3.org/2000/svg"
   xmlns:svg="http://www.w3.org/2000/svg">
  <defs
     id="defs11" />
  <sodipodi:namedview
     id="namedview9"
     pagecolor="#ffffff"
     bordercolor="#000000"
     borderopacity="0.25"
     inkscape:showpageshadow="2"
     inkscape:pageopacity="0.0"
     inkscape:pagecheckerboard="0"
     inkscape:deskcolor="#d1d1d1" />
  <!-- Exported by Scratch - http://scratch.mit.edu/ -->
  <g
     id="ID0.15856806794181466"
     transform="translate(-1.6367039,-1.5371765)">
    <path
       id="ID0.2259777677245438"
       fill="#fcd53e"
       d="M 456,204.3 H 168.8 V 173.6 H 208 c 21.7,4.3 38.7,11.8 49.3,23.9 8.5,-24.1 9.2,-47.3 0,-69.5 -9.2,13.7 -38.9,28.3 -49.3,31.7 -8.8,2.8 -61.2,7.3 -77.5,8 -2.1,0.1 -3.6,0.1 -4.3,0.1 v 0 c -0.3,0 -0.5,0 -0.5,-0.1 h -44 c -0.3,0 -0.7,0 -1,0.1 -15.1,1.4 -21.9,16.4 -18.5,28.7 3.7,13.5 18.5,15.9 18.5,15.9 h 111.2 v 9.3 h -8.3 c -0.8,-1.6 -2.2,-2.7 -3.7,-2.7 -1.6,0 -2.9,1.1 -3.7,2.7 h -9.4 c -1.2,-1.1 -2.9,-1.8 -4.8,-1.8 -1.3,0 -3.2,-0.6 -4.3,-0.2 -0.4,-0.5 -0.9,-0.9 -1.5,-1.2 -1.3,-0.7 -3.1,0 -3.4,1.5 -0.8,3.3 -0.9,6.6 -0.2,10 0.4,1.7 2.4,2.5 3.8,1.4 0.2,-0.2 0.5,-0.4 0.7,-0.6 1.2,0.5 3.7,0.3 5,0.3 2,0 3.8,-0.8 5,-2 h 9.7 c 0.8,1.2 2,2 3.3,2 1.3,0 2.5,-0.8 3.3,-2 H 456 c 0,0 9.3,-0.7 11.5,-8.4 2,-7.2 -2.2,-15.9 -11.5,-16.4 z m -366.6,0 h -8.7 c -16.6,-1.7 -12.9,-28 1,-30.7 h 7.7 z m 25.7,0 h -18 v -30.7 h 18 z m 45.8,0 h -39 v -30.7 h 30.4 c 0,0 0.2,0 0.5,0 h 8.2 z m 50,17.4 h -13.2 v -9.3 h 13.2 z m 245.1,0 H 216.7 v -9.3 H 456 c 5.3,-0.1 7.9,7.3 0,9.3 z"
       transform="matrix(0.69833732,0,0,0.69833732,-42.2,-88.85)" />
    <path
       id="ID0.8608506550081074"
       fill="none"
       stroke="#fcd53e"
       d="m 277.7,162.5 h 42"
       transform="matrix(0.69833732,0,0,0.69833732,-42.2,-88.85)" />
    <path
       id="ID0.9644269701093435"
       fill="none"
       stroke="#fcd53e"
       d="m 277.7,173.7 36.4,21"
       transform="matrix(0.69833732,0,0,0.69833732,-42.2,-88.85)" />
    <path
       id="ID0.4391731065697968"
       fill="none"
       stroke="#fcd53e"
       d="m 277.7,151.3 36.4,-21"
       transform="matrix(0.69833732,0,0,0.69833732,-42.2,-88.85)" />
  </g>
</svg>
